assets/svg/app/mint.svg

<svg width="27" height="24" viewBox="0 0 27 24" fill="none" xmlns="http://www.w3.org/2000/svg">
<path d="M16.6806 22.4753H16.6808C21.3446 22.4725 25.1247 18.6928 25.1247 14.0311C25.1247 9.36697 21.3447 5.58696 16.6806 5.58696C12.0164 5.58696 8.23641 9.36697 8.23641 14.0311C8.23641 18.6953 12.0164 22.4753 16.6806 22.4753ZM6.31659 9.41649C6.03597 10.0458 5.81037 10.7053 5.64806 11.3891H0.464225V9.41649H6.31659ZM0.464225 5.06618H9.72934C8.99059 5.63957 8.32533 6.30252 7.7484 7.03881H0.464225V5.06618ZM0.464225 0.713249H18.3941V2.68588H0.464225V0.713249ZM10.6193 14.0311C10.6193 10.6866 13.3387 7.96726 16.6832 7.96726C20.0277 7.96726 22.747 10.6866 22.747 14.0311C22.747 17.3756 20.0277 20.095 16.6832 20.095C13.3387 20.095 10.6193 17.3756 10.6193 14.0311ZM0.464225 15.7421V13.7694H5.34261C5.332 14.2313 5.34341 14.9478 5.46469 15.7421H0.464225ZM25.6481 14.0311C25.6481 18.9737 21.6258 22.9961 16.6832 22.9961C11.7406 22.9961 7.71824 18.9737 7.71824 14.0311C7.71824 9.08853 11.7406 5.06618 16.6832 5.06618C21.6258 5.06618 25.6481 9.08853 25.6481 14.0311ZM7.09389 20.095H0.464225V18.1223H6.09847C6.3676 18.8151 6.7018 19.4753 7.09389 20.095Z" fill="#080829" stroke="#00D1FF" stroke-width="0.928451"/>
</svg>

<svg width="27" height="24" fill="none" xmlns="http://www.w3.org/2000/svg">
    <path d="M16.68 22.475a8.443 8.443 0 1 0 0-16.888 8.443 8.443 0 0 0-8.444 8.444 8.443 8.443 0 0 0 8.445 8.444ZM6.318 9.416c-.281.63-.507 1.29-.669 1.973H.464V9.416h5.853ZM.464 5.066H9.73A11.389 11.389 0 0 0 7.75 7.04H.463V5.066Zm0-4.353h17.93v1.973H.464V.713ZM10.62 14.031a6.07 6.07 0 0 1 6.064-6.064 6.07 6.07 0 0 1 6.064 6.064 6.07 6.07 0 0 1-6.064 6.064 6.07 6.07 0 0 1-6.064-6.064ZM.464 15.742V13.77h4.879c-.011.462 0 1.179.122 1.973h-5Zm25.184-1.71c0 4.942-4.022 8.964-8.965 8.964-4.942 0-8.965-4.022-8.965-8.965 0-4.942 4.023-8.965 8.965-8.965 4.943 0 8.965 4.023 8.965 8.965ZM7.094 20.094H.464v-1.973h5.634c.27.693.604 1.353.996 1.973Z" stroke="#00D1FF" stroke-width=".928"/>
</svg>
